icons/unread-48.svg

<svg width="48" height="48" viewBox="0 0 48 48" fill="none" xmlns="http://www.w3.org/2000/svg">
<g clip-path="url(#clip0_8547_104295)">
<path d="M4.5 10C3.67157 10 3 10.6716 3 11.5V12.201L24.0085 24.2748L33.4458 18.974L35.2358 17.9141C35.9486 17.4921 36.8686 17.7278 37.2907 18.4406C37.7128 19.1534 37.4771 20.0735 36.7643 20.4955L34.9596 21.5641C34.9498 21.57 34.9399 21.5757 34.9299 21.5813L24.7346 27.3078C24.2738 27.5666 23.7108 27.5639 23.2526 27.3005L3 15.6611V36.5C3 37.3284 3.67157 38 4.5 38H43.55C44.3784 38 45.05 37.3284 45.05 36.5V21C45.05 20.1716 45.7215 19.5 46.55 19.5C47.3784 19.5 48.05 20.1716 48.05 21V36.5C48.05 38.9853 46.0352 41 43.55 41H4.5C2.01472 41 0 38.9853 0 36.5V11.5C0 9.01472 2.01472 7 4.5 7H34C34.8284 7 35.5 7.67157 35.5 8.5C35.5 9.32843 34.8284 10 34 10H4.5Z" fill="#24292F"/>
<path d="M43.0001 17C45.7615 17 48.0001 14.7614 48.0001 12C48.0001 9.23858 45.7615 7 43.0001 7C40.2386 7 38.0001 9.23858 38.0001 12C38.0001 14.7614 40.2386 17 43.0001 17Z" fill="#24292F"/>
</g>
<defs>
<clipPath id="clip0_8547_104295">
<rect width="48" height="48" fill="white"/>
</clipPath>
</defs>
</svg>

<svg xmlns="http://www.w3.org/2000/svg" width="48" height="48" viewBox="0 0 48 48"><path d="M4.5 10A1.5 1.5 0 003 11.5v.701l21.009 12.074 9.437-5.301 1.79-1.06a1.5 1.5 0 011.528 2.581l-1.804 1.07-.03.016-10.195 5.727a1.5 1.5 0 01-1.482-.008L3 15.662V36.5A1.5 1.5 0 004.5 38h39.05a1.5 1.5 0 001.5-1.5V21a1.5 1.5 0 113 0v15.5a4.5 4.5 0 01-4.5 4.5H4.5A4.5 4.5 0 010 36.5v-25A4.5 4.5 0 014.5 7H34a1.5 1.5 0 010 3H4.5z"/><path d="M43 17a5 5 0 100-10 5 5 0 000 10z"/></svg>
